app/src/main/assets/patterns/scrub.svg

<?xml version="1.0" encoding="UTF-8" standalone="no"?>
<!-- Created with Inkscape (http://www.inkscape.org/) -->

<svg
   xmlns:dc="http://purl.org/dc/elements/1.1/"
   xmlns:cc="http://creativecommons.org/ns#"
   xmlns:rdf="http://www.w3.org/1999/02/22-rdf-syntax-ns#"
   xmlns:svg="http://www.w3.org/2000/svg"
   xmlns="http://www.w3.org/2000/svg"
   xmlns:sodipodi="http://sodipodi.sourceforge.net/DTD/sodipodi-0.dtd"
   xmlns:inkscape="http://www.inkscape.org/namespaces/inkscape"
   width="512"
   height="512"
   viewBox="0 0 512 512"
   version="1.1"
   id="svg2486"
   inkscape:version="0.92.4 (5da689c313, 2019-01-14)"
   sodipodi:docname="scrub.svg">
  <defs
     id="defs2480" />
  <sodipodi:namedview
     id="base"
     pagecolor="#ffffff"
     bordercolor="#666666"
     borderopacity="1.0"
     inkscape:pageopacity="0.0"
     inkscape:pageshadow="2"
     inkscape:zoom="0.35"
     inkscape:cx="-182.85714"
     inkscape:cy="560"
     inkscape:document-units="px"
     inkscape:current-layer="layer1"
     showgrid="false"
     units="px"
     fit-margin-top="0"
     fit-margin-left="0"
     fit-margin-right="0"
     fit-margin-bottom="0"
     inkscape:window-width="1185"
     inkscape:window-height="901"
     inkscape:window-x="544"
     inkscape:window-y="95"
     inkscape:window-maximized="0" />
  <metadata
     id="metadata2483">
    <rdf:RDF>
      <cc:Work
         rdf:about="">
        <dc:format>image/svg+xml</dc:format>
        <dc:type
           rdf:resource="http://purl.org/dc/dcmitype/StillImage" />
        <dc:title></dc:title>
      </cc:Work>
    </rdf:RDF>
  </metadata>
  <g
     inkscape:label="Layer 1"
     inkscape:groupmode="layer"
     id="layer1"
     transform="translate(0,-161.53334)">
    <g
       style="fill:#b0be93"
       id="use222"
       transform="matrix(15,0,0,15,335.89553,286.48597)">
      <g
         id="g3046">
        <path
           inkscape:connector-curvature="0"
           id="path3044"
           d="m 4,9 v 4.125 L 2.40625,10.7188 1.59375,11.2813 3.40625,14 H 1 v 1 H 4 5 8 V 14 H 5.59375 L 7.40625,11.2813 6.59375,10.7188 5,13.125 V 9 Z" />
      </g>
    </g>
    <g
       style="fill:#b0be93"
       id="use270"
       transform="matrix(15,0,0,15,226.59359,34.15508)">
      <g
         id="g3052">
        <path
           inkscape:connector-curvature="0"
           id="path3050"
           d="m 4,9 v 4.125 L 2.40625,10.7188 1.59375,11.2813 3.40625,14 H 1 v 1 H 4 5 8 V 14 H 5.59375 L 7.40625,11.2813 6.59375,10.7188 5,13.125 V 9 Z" />
      </g>
    </g>
    <g
       style="fill:#b0be93"
       id="use276"
       transform="matrix(15,0,0,15,66.247332,381.48302)">
      <g
         id="g3058">
        <path
           inkscape:connector-curvature="0"
           id="path3056"
           d="m 4,9 v 4.125 L 2.40625,10.7188 1.59375,11.2813 3.40625,14 H 1 v 1 H 4 5 8 V 14 H 5.59375 L 7.40625,11.2813 6.59375,10.7188 5,13.125 V 9 Z" />
      </g>
    </g>
  </g>
</svg>

<?xml version="1.0" encoding="UTF-8"?>
<svg version="1.1" viewBox="0 0 512 512" xmlns="http://www.w3.org/2000/svg" xmlns:cc="http://creativecommons.org/ns#" xmlns:dc="http://purl.org/dc/elements/1.1/" xmlns:rdf="http://www.w3.org/1999/02/22-rdf-syntax-ns#">
<metadata>
<rdf:RDF>
<cc:Work rdf:about="">
<dc:format>image/svg+xml</dc:format>
<dc:type rdf:resource="http://purl.org/dc/dcmitype/StillImage"/>
<dc:title/>
</cc:Work>
</rdf:RDF>
</metadata>
<g transform="matrix(10.5 0 0 10.5 13.98 41.753)" fill="#8da163" stroke-width="1.4286">
<g fill="#8da163" stroke-width="1.4286">
<path d="m4 9v4.125l-1.5938-2.4062-0.8125 0.5625 1.8125 2.7187h-2.4062v1h7v-1h-2.4062l1.8125-2.7187-0.8125-0.5625-1.5938 2.4062v-4.125z" fill="#8da163" stroke-width="1.4286"/>
</g>
</g>
<g transform="matrix(10.5 0 0 10.5 240.18 -21.501)" fill="#8da163" stroke-width="1.4286">
<g fill="#8da163" stroke-width="1.4286">
<path d="m4 9v4.125l-1.5938-2.4062-0.8125 0.5625 1.8125 2.7187h-2.4062v1h7v-1h-2.4062l1.8125-2.7187-0.8125-0.5625-1.5938 2.4062v-4.125z" fill="#8da163" stroke-width="1.4286"/>
</g>
</g>
<g transform="matrix(10.5 0 0 10.5 210.34 151.33)" fill="#8da163" stroke-width="1.4286">
<g fill="#8da163" stroke-width="1.4286">
<path d="m4 9v4.125l-1.5938-2.4062-0.8125 0.5625 1.8125 2.7187h-2.4062v1h7v-1h-2.4062l1.8125-2.7187-0.8125-0.5625-1.5938 2.4062v-4.125z" fill="#8da163" stroke-width="1.4286"/>
</g>
</g>
<g transform="matrix(10.5 0 0 10.5 390.61 283.52)" fill="#8da163" stroke-width="1.4286">
<g fill="#8da163" stroke-width="1.4286">
<path d="m4 9v4.125l-1.5938-2.4062-0.8125 0.5625 1.8125 2.7187h-2.4062v1h7v-1h-2.4062l1.8125-2.7187-0.8125-0.5625-1.5938 2.4062v-4.125z" fill="#8da163" stroke-width="1.4286"/>
</g>
</g>
<g transform="matrix(10.5 0 0 10.5 63.655 333.34)" fill="#8da163" stroke-width="1.4286">
<g fill="#8da163" stroke-width="1.4286">
<path d="m4 9v4.125l-1.5938-2.4062-0.8125 0.5625 1.8125 2.7187h-2.4062v1h7v-1h-2.4062l1.8125-2.7187-0.8125-0.5625-1.5938 2.4062v-4.125z" fill="#8da163" stroke-width="1.4286"/>
</g>
</g>
</svg>
